static/fonts/fa/file-csv.svg

<svg xmlns="http://www.w3.org/2000/svg" viewBox="0 0 384 512"><!-- Font Awesome Free 5.15.4 by @fontawesome - https://fontawesome.com License - https://fontawesome.com/license/free (Icons: CC BY 4.0, Fonts: SIL OFL 1.1, Code: MIT License) --><path d="M224 136V0H24C10.7 0 0 10.7 0 24v464c0 13.3 10.7 24 24 24h336c13.3 0 24-10.7 24-24V160H248c-13.2 0-24-10.8-24-24zm-96 144c0 4.42-3.58 8-8 8h-8c-8.84 0-16 7.16-16 16v32c0 8.84 7.16 16 16 16h8c4.42 0 8 3.58 8 8v16c0 4.42-3.58 8-8 8h-8c-26.51 0-48-21.49-48-48v-32c0-26.51 21.49-48 48-48h8c4.42 0 8 3.58 8 8v16zm44.27 104H160c-4.42 0-8-3.58-8-8v-16c0-4.42 3.58-8 8-8h12.27c5.95 0 10.41-3.5 10.41-6.62 0-1.3-.75-2.66-2.12-3.84l-21.89-18.77c-8.47-7.22-13.33-17.48-13.33-28.14 0-21.3 19.02-38.62 42.41-38.62H200c4.42 0 8 3.58 8 8v16c0 4.42-3.58 8-8 8h-12.27c-5.95 0-10.41 3.5-10.41 6.62 0 1.3.75 2.66 2.12 3.84l21.89 18.77c8.47 7.22 13.33 17.48 13.33 28.14.01 21.29-19 38.62-42.39 38.62zM256 264v20.8c0 20.27 5.7 40.17 16 56.88 10.3-16.7 16-36.61 16-56.88V264c0-4.42 3.58-8 8-8h16c4.42 0 8 3.58 8 8v20.8c0 35.48-12.88 68.89-36.28 94.09-3.02 3.25-7.27 5.11-11.72 5.11s-8.7-1.86-11.72-5.11c-23.4-25.2-36.28-58.61-36.28-94.09V264c0-4.42 3.58-8 8-8h16c4.42 0 8 3.58 8 8zm121-159L279.1 7c-4.5-4.5-10.6-7-17-7H256v128h128v-6.1c0-6.3-2.5-12.4-7-16.9z"/></svg>

<svg xmlns="http://www.w3.org/2000/svg" viewBox="0 0 384 512"><!--! Font Awesome Free 6.0.0-beta3 by @fontawesome - https://fontawesome.com License - https://fontawesome.com/license/free (Icons: CC BY 4.0, Fonts: SIL OFL 1.1, Code: MIT License) Copyright 2021 Fonticons, Inc. --><path d="M256 0v128h128L256 0zM224 128L224 0H48C21.49 0 0 21.49 0 48v416C0 490.5 21.49 512 48 512h288c26.51 0 48-21.49 48-48V160h-127.1C238.3 160 224 145.7 224 128zM128 280C128 284.4 124.4 288 120 288H112C103.1 288 96 295.1 96 304v32C96 344.9 103.1 352 112 352h8C124.4 352 128 355.6 128 360v16C128 380.4 124.4 384 120 384H112C85.5 384 64 362.5 64 336v-32C64 277.5 85.5 256 112 256h8C124.4 256 128 259.6 128 264V280zM172.3 384H160c-4.375 0-8-3.625-8-8v-16C152 355.6 155.6 352 160 352h12.25c6 0 10.38-3.5 10.38-6.625c0-1.25-.75-2.625-2.125-3.875l-21.88-18.75C150.3 315.5 145.4 305.3 145.4 294.6C145.4 273.4 164.4 256 187.8 256H200c4.375 0 8 3.625 8 8v16C208 284.4 204.4 288 200 288H187.8c-6 0-10.38 3.5-10.38 6.625c0 1.25 .75 2.625 2.125 3.875l21.88 18.75c8.375 7.25 13.25 17.5 13.25 28.12C214.6 366.6 195.6 384 172.3 384zM288 284.8V264C288 259.6 291.6 256 296 256h16C316.4 256 320 259.6 320 264v20.75c0 35.5-12.88 69-36.25 94.13C280.8 382.1 276.5 384 272 384s-8.75-1.875-11.75-5.125C236.9 353.8 224 320.3 224 284.8V264C224 259.6 227.6 256 232 256h16C252.4 256 256 259.6 256 264v20.75c0 20.38 5.75 40.25 16 56.88C282.3 325 288 305.1 288 284.8z"/></svg>
